;FLAVOR:RepRap
;TIME:25270
;Generated with Cura_SteamEngine master
M190 S60
M104 S210
M109 S210
G21 ;metric values
G90 ;absolute positioning
M82 ;set extruder to absolute mode
M107 ;start with the fan off
G28 X0 Y0 ;move X/Y to min endstops
G28 Z0 ;move Z to min endstops
G1 Z15.0 F9000 ;move the platform down 15mm
G92 E0 ;zero the extruded length
G1 F200 E3 ;extrude 3mm of feed stock
G92 E0 ;zero the extruded length again
G1 F9000
;Put printing message on LCD screen
M117 Printing...
;LAYER_COUNT:107
;LAYER:0
M107
G1 F1500 E-6.5
G0 F3600 X8.17 Y55.515 Z.3
;TYPE:SKIRT
G1 F1500 E0
G1 F1800 X8.955 Y55.434 E0.03937
G1 X9.357 Y55.424 E0.05943
G1 X190.608 Y55.424 E9.10208
G1 X191.397 Y55.464 E9.1415
G1 X192.177 Y55.583 E9.18086
G1 X192.942 Y55.781 E9.22029
G1 X193.682 Y56.055 E9.25965
G1 X194.391 Y56.403 E9.29906
G1 X195.062 Y56.821 E9.3385
G1 X195.686 Y57.304 E9.37787
G1 X196.259 Y57.847 E9.41725
G1 X196.774 Y58.446 E9.45666
G1 X197.225 Y59.094 E9.49605
G1 X197.609 Y59.785 E9.53549
G1 X197.921 Y60.51 E9.57487
G1 X198.158 Y61.263 E9.61425
G1 X198.317 Y62.037 E9.65367
G1 X198.398 Y62.822 E9.69304
G1 X198.408 Y63.224 E9.7131
G1 X198.409 Y144.112 E13.74862
G1 X198.369 Y144.901 E13.78804
G1 X198.25 Y145.681 E13.8274
G1 X198.052 Y146.446 E13.86683
G1 X197.778 Y147.186 E13.90619
G1 X197.43 Y147.895 E13.9456
G1 X197.013 Y148.566 E13.98501
G1 X196.529 Y149.19 E14.02441
G1 X195.986 Y149.763 E14.06379
G1 X195.387 Y150.278 E14.10321
G1 X194.739 Y150.729 E14.14259
G1 X194.049 Y151.113 E14.18199
G1 X193.323 Y151.425 E14.22141
G1 X192.57 Y151.662 E14.2608
G1 X191.796 Y151.821 E14.30022
G1 X191.011 Y151.902 E14.33959
G1 X190.609 Y151.912 E14.35965
G1 X9.357 Y151.912 E23.40235
G1 X8.568 Y151.872 E23.44177
G1 X7.788 Y151.753 E23.48113
G1 X7.023 Y151.555 E23.52055
G1 X6.283 Y151.281 E23.55992
G1 X5.574 Y150.933 E23.59932
G1 X4.903 Y150.515 E23.63877
G1 X4.279 Y150.032 E23.67813
G1 X3.706 Y149.489 E23.71752
G1 X3.191 Y148.89 E23.75693
G1 X2.74 Y148.242 E23.79632
G1 X2.356 Y147.551 E23.83576
G1 X2.044 Y146.826 E23.87513
G1 X1.807 Y146.073 E23.91452
G1 X1.648 Y145.299 E23.95394
G1 X1.567 Y144.514 E23.99331
G1 X1.557 Y144.112 E24.01337
G1 X1.557 Y63.224 E28.04889
G1 X1.597 Y62.435 E28.08831
G1 X1.716 Y61.655 E28.12767
G1 X1.914 Y60.89 E28.16709
G1 X2.188 Y60.15 E28.20646
G1 X2.536 Y59.441 E28.24587
G1 X2.954 Y58.77 E28.28531
G1 X3.437 Y58.146 E28.32467
G1 X3.98 Y57.573 E28.36406
G1 X4.579 Y57.058 E28.40347
G1 X5.227 Y56.607 E28.44286
G1 X5.918 Y56.223 E28.4823
G1 X6.643 Y55.911 E28.52167
G1 X7.396 Y55.674 E28.56106
G1 X8.17 Y55.515 E28.60048
G0 F3600 X8.508 Y55.873
G1 F1800 X9.357 Y55.824 E28.64291
G1 X190.608 Y55.824 E37.68556
G1 X191.376 Y55.864 E37.72392
G1 X192.136 Y55.983 E37.7623
G1 X192.879 Y56.181 E37.80066
G1 X193.598 Y56.455 E37.83905
G1 X194.284 Y56.802 E37.87741
G1 X194.931 Y57.218 E37.91578
G1 X195.531 Y57.699 E37.95415
G1 X196.078 Y58.24 E37.99253
G1 X196.566 Y58.835 E38.03092
G1 X196.989 Y59.477 E38.06928
G1 X197.344 Y60.16 E38.10768
G1 X197.625 Y60.875 E38.14601
G1 X197.831 Y61.617 E38.18443
G1 X197.959 Y62.375 E38.22278
G1 X198.008 Y63.224 E38.26521
G1 X198.009 Y144.112 E42.30073
G1 X197.969 Y144.88 E42.33909
G1 X197.85 Y145.64 E42.37747
G1 X197.652 Y146.383 E42.41583
G1 X197.378 Y147.102 E42.45422
G1 X197.031 Y147.788 E42.49258
G1 X196.615 Y148.435 E42.53095
G1 X196.134 Y149.035 E42.56932
G1 X195.593 Y149.582 E42.6077
G1 X194.998 Y150.07 E42.64609
G1 X194.356 Y150.493 E42.68445
G1 X193.673 Y150.848 E42.72285
G1 X192.958 Y151.129 E42.76118
G1 X192.217 Y151.335 E42.79955
G1 X191.458 Y151.463 E42.83795
G1 X190.609 Y151.512 E42.88038
G1 X9.357 Y151.512 E51.92308
G1 X8.589 Y151.472 E51.96144
G1 X7.829 Y151.353 E51.99982
G1 X7.086 Y151.155 E52.03818
G1 X6.367 Y150.881 E52.07657
G1 X5.681 Y150.534 E52.11493
G1 X5.034 Y150.118 E52.1533
G1 X4.434 Y149.637 E52.19167
G1 X3.887 Y149.096 E52.23005
G1 X3.399 Y148.501 E52.26844
G1 X2.976 Y147.859 E52.3068
G1 X2.621 Y147.176 E52.3452
G1 X2.34 Y146.461 E52.38353
G1 X2.134 Y145.719 E52.42195
G1 X2.006 Y144.961 E52.4603
G1 X1.957 Y144.112 E52.50273
G1 X1.957 Y63.224 E56.53825
G1 X1.997 Y62.456 E56.57661
G1 X2.116 Y61.696 E56.61499
G1 X2.314 Y60.953 E56.65335
G1 X2.588 Y60.234 E56.69174
G1 X2.935 Y59.548 E56.7301
G1 X3.351 Y58.901 E56.76847
G1 X3.832 Y58.301 E56.80684
G1 X4.373 Y57.754 E56.84522
G1 X4.968 Y57.266 E56.88361
G1 X5.61 Y56.843 E56.92197
G1 X6.293 Y56.488 E56.96037
G1 X7.008 Y56.207 E56.9987
G1 X7.75 Y56.001 E57.03712
G1 X8.508 Y55.873 E57.07547
G0 F3600 X8.84 Y56.243
G1 F1800 X9.357 Y56.224 E57.10128
G1 X190.608 Y56.224 E66.14393
G1 X191.355 Y56.264 E66.18125
G1 X192.093 Y56.383 E66.21854
G1 X192.815 Y56.581 E66.2559
G1 X193.511 Y56.854 E66.29319
G1 X194.174 Y57.201 E66.33053
G1 X194.797 Y57.616 E66.36787
G1 X195.371 Y58.095 E66.40517
G1 X195.892 Y58.632 E66.4425
G1 X196.351 Y59.222 E66.47979
G1 X196.746 Y59.858 E66.51715
G1 X197.07 Y60.532 E66.55446
G1 X197.32 Y61.237 E66.59177
G1 X197.494 Y61.965 E66.62912
G1 X197.589 Y62.707 E66.66644
G1 X197.608 Y63.224 E66.69225
G1 X197.609 Y144.112 E70.72777
G1 X197.569 Y144.859 E70.76509
G1 X197.45 Y145.597 E70.80238
G1 X197.252 Y146.319 E70.83973
G1 X196.979 Y147.015 E70.87703
G1 X196.632 Y147.678 E70.91437
G1 X196.217 Y148.301 E70.95171
G1 X195.738 Y148.875 E70.98901
G1 X195.201 Y149.395 E71.0263
G1 X194.611 Y149.855 E71.06363
G1 X193.975 Y150.25 E71.10098
G1 X193.301 Y150.574 E71.13829
G1 X192.596 Y150.824 E71.17561
G1 X191.868 Y150.998 E71.21295
G1 X191.126 Y151.093 E71.25027
G1 X190.609 Y151.112 E71.27608
G1 X9.357 Y151.112 E80.31878
G1 X8.61 Y151.072 E80.3561
G1 X7.872 Y150.953 E80.3934
G1 X7.15 Y150.755 E80.43075
G1 X6.454 Y150.482 E80.46805
G1 X5.791 Y150.135 E80.50538
G1 X5.168 Y149.72 E80.54273
G1 X4.594 Y149.241 E80.58003
G1 X4.073 Y148.704 E80.61735
G1 X3.614 Y148.114 E80.65465
G1 X3.219 Y147.478 E80.692
G1 X2.895 Y146.804 E80.72931
G1 X2.645 Y146.099 E80.76663
G1 X2.471 Y145.371 E80.80397
G1 X2.376 Y144.629 E80.84129
G1 X2.357 Y144.112 E80.8671
G1 X2.357 Y63.224 E84.90262
G1 X2.397 Y62.477 E84.93994
G1 X2.516 Y61.739 E84.97724
G1 X2.714 Y61.017 E85.01459
G1 X2.987 Y60.321 E85.05189
G1 X3.334 Y59.658 E85.08922
G1 X3.749 Y59.035 E85.12657
G1 X4.228 Y58.461 E85.16387
G1 X4.765 Y57.94 E85.20119
G1 X5.355 Y57.481 E85.23849
G1 X5.991 Y57.086 E85.27584
G1 X6.665 Y56.762 E85.31315
G1 X7.37 Y56.512 E85.35047
G1 X8.098 Y56.338 E85.38781
G1 X8.84 Y56.243 E85.42513
G0 F3600 X9.357 Y56.624
G1 F1800 X190.608 Y56.624 E94.46778
G1 X191.333 Y56.664 E94.50401
G1 X192.05 Y56.783 E94.54027
G1 X192.749 Y56.981 E94.57651
G1 X193.422 Y57.254 E94.61274
G1 X194.061 Y57.599 E94.64897
G1 X194.658 Y58.013 E94.68522
G1 X195.206 Y58.489 E94.72143
G1 X195.699 Y59.023 E94.75769
G1 X196.129 Y59.608 E94.79391
G1 X196.493 Y60.237 E94.83017
G1 X196.786 Y60.902 E94.86643
G1 X197.004 Y61.595 E94.90267
G1 X197.144 Y62.307 E94.93887
G1 X197.208 Y63.224 E94.98473
G1 X197.209 Y144.112 E99.02025
G1 X197.169 Y144.837 E99.05648
G1 X197.05 Y145.554 E99.09274
G1 X196.852 Y146.253 E99.12898
G1 X196.579 Y146.926 E99.16522
G1 X196.234 Y147.565 E99.20145
G1 X195.82 Y148.162 E99.23769
G1 X195.344 Y148.71 E99.2739
G1 X194.81 Y149.203 E99.31016
G1 X194.225 Y149.633 E99.34639
G1 X193.596 Y149.997 E99.38264
G1 X192.932 Y150.29 E99.41885
G1 X192.239 Y150.508 E99.45509
G1 X191.526 Y150.648 E99.49135
G1 X190.609 Y150.712 E99.53721
G1 X9.357 Y150.712 E108.57991
G1 X8.632 Y150.672 E108.61613
G1 X7.915 Y150.553 E108.65239
G1 X7.216 Y150.355 E108.68864
G1 X6.543 Y150.082 E108.72487
G1 X5.904 Y149.737 E108.7611
G1 X5.307 Y149.323 E108.79735
G1 X4.759 Y148.847 E108.83356
G1 X4.266 Y148.313 E108.86982
G1 X3.836 Y147.728 E108.90604
G1 X3.472 Y147.099 E108.9423
G1 X3.179 Y146.434 E108.97855
G1 X2.961 Y145.741 E109.0148
G1 X2.821 Y145.029 E109.051
G1 X2.757 Y144.112 E109.09686
G1 X2.757 Y63.224 E113.13238
G1 X2.797 Y62.499 E113.1686
G1 X2.916 Y61.782 E113.20486
G1 X3.114 Y61.083 E113.24111
G1 X3.387 Y60.41 E113.27734
G1 X3.732 Y59.771 E113.31357
G1 X4.146 Y59.174 E113.34982
G1 X4.622 Y58.626 E113.38603
G1 X5.156 Y58.133 E113.42229
G1 X5.741 Y57.703 E113.45851
G1 X6.37 Y57.339 E113.49477
G1 X7.035 Y57.046 E113.53102
G1 X7.728 Y56.828 E113.56727
G1 X8.44 Y56.688 E113.60347
G1 X9.357 Y56.624 E113.64933
G0 F3600 X9.357 Y57.024
G1 F1800 X190.608 Y57.024 E122.69198
G1 X191.311 Y57.064 E122.72711
G1 X192.005 Y57.183 E122.76224
G1 X192.68 Y57.381 E122.79733
G1 X193.329 Y57.653 E122.83244
G1 X193.943 Y57.998 E122.86758
G1 X194.514 Y58.409 E122.90268
G1 X195.035 Y58.883 E122.93782
G1 X195.499 Y59.413 E122.97296
G1 X195.899 Y59.992 E123.00807
G1 X196.231 Y60.613 E123.0432
G1 X196.491 Y61.267 E123.07831
G1 X196.675 Y61.947 E123.11346
G1 X196.781 Y62.643 E123.14858
G1 X196.808 Y63.224 E123.1776
G1 X196.809 Y144.112 E127.21312
G1 X196.769 Y144.815 E127.24825
G1 X196.65 Y145.509 E127.28338
G1 X196.452 Y146.184 E127.31847
G1 X196.18 Y146.833 E127.35358
G1 X195.835 Y147.447 E127.38872
G1 X195.424 Y148.018 E127.42382
G1 X194.95 Y148.539 E127.45896
G1 X194.42 Y149.003 E127.4941
G1 X193.841 Y149.403 E127.52921
G1 X193.22 Y149.735 E127.56434
G1 X192.566 Y149.995 E127.59945
G1 X191.886 Y150.179 E127.6346
G1 X191.19 Y150.285 E127.66972
G1 X190.609 Y150.312 E127.69874
G1 X9.357 Y150.312 E136.74144
G1 X8.654 Y150.272 E136.77657
G1 X7.96 Y150.153 E136.8117
G1 X7.285 Y149.955 E136.84679
G1 X6.636 Y149.683 E136.8819
G1 X6.022 Y149.338 E136.91704
G1 X5.451 Y148.927 E136.95214
G1 X4.93 Y148.453 E136.98728
G1 X4.466 Y147.923 E137.02242
G1 X4.066 Y147.344 E137.05753
G1 X3.734 Y146.723 E137.09266
G1 X3.474 Y146.069 E137.12777
G1 X3.29 Y145.389 E137.16292
G1 X3.184 Y144.693 E137.19804
G1 X3.157 Y144.112 E137.22706
G1 X3.157 Y63.224 E141.26258
G1 X3.197 Y62.521 E141.29771
G1 X3.316 Y61.827 E141.33284
G1 X3.514 Y61.152 E141.36793
G1 X3.786 Y60.503 E141.40304
G1 X4.131 Y59.889 E141.43818
G1 X4.542 Y59.318 E141.47327
G1 X5.016 Y58.797 E141.50842
G1 X5.546 Y58.333 E141.54356
G1 X6.125 Y57.933 E141.57867
G1 X6.746 Y57.601 E141.6138
G1 X7.4 Y57.341 E141.64891
G1 X8.08 Y57.157 E141.68406
G1 X8.776 Y57.051 E141.71918
G1 X9.357 Y57.024 E141.7482
G0 F3600 X9.357 Y57.424
G1 F1800 X190.608 Y57.424 E150.79085
G1 X191.288 Y57.464 E150.82483
G1 X191.958 Y57.583 E150.85878
G1 X192.61 Y57.78 E150.89276
G1 X193.234 Y58.052 E150.92672
G1 X193.822 Y58.396 E150.96071
G1 X194.366 Y58.806 E150.99469
G1 X194.857 Y59.277 E151.02864
G1 X195.291 Y59.802 E151.06262
G1 X195.66 Y60.374 E151.09658
G1 X195.959 Y60.986 E151.13056
G1 X196.184 Y61.628 E151.1645
G1 X196.333 Y62.293 E151.1985
G1 X196.408 Y63.224 E151.2451
G1 X196.409 Y144.112 E155.28062
G1 X196.369 Y144.792 E155.3146
G1 X196.25 Y145.462 E155.34855
G1 X196.053 Y146.114 E155.38253
G1 X195.781 Y146.738 E155.4165
G1 X195.437 Y147.326 E155.45048
G1 X195.027 Y147.87 E155.48447
G1 X194.556 Y148.361 E155.51841
G1 X194.031 Y148.795 E155.5524
G1 X193.459 Y149.164 E155.58636
G1 X192.847 Y149.463 E155.62034
G1 X192.205 Y149.688 E155.65428
G1 X191.54 Y149.837 E155.68828
G1 X190.609 Y149.912 E155.73487
G1 X9.357 Y149.912 E164.77757
G1 X8.677 Y149.872 E164.81156
G1 X8.007 Y149.753 E164.84551
G1 X7.355 Y149.556 E164.87949
G1 X6.731 Y149.284 E164.91345
G1 X6.143 Y148.94 E164.94744
G1 X5.599 Y148.53 E164.98142
G1 X5.108 Y148.059 E165.01537
G1 X4.674 Y147.534 E165.04935
G1 X4.305 Y146.962 E165.08331
G1 X4.006 Y146.35 E165.11729
G1 X3.781 Y145.708 E165.15123
G1 X3.632 Y145.043 E165.18523
G1 X3.557 Y144.112 E165.23183
G1 X3.557 Y63.224 E169.26735
G1 X3.597 Y62.544 E169.30133
G1 X3.716 Y61.874 E169.33528
G1 X3.913 Y61.222 E169.36926
G1 X4.185 Y60.598 E169.40322
G1 X4.529 Y60.01 E169.43721
G1 X4.939 Y59.466 E169.47119
G1 X5.41 Y58.975 E169.50514
G1 X5.935 Y58.541 E169.53912
G1 X6.507 Y58.172 E169.57308
G1 X7.119 Y57.873 E169.60706
G1 X7.761 Y57.648 E169.641
G1 X8.426 Y57.499 E169.675
G1 X9.357 Y57.424 E169.7216
G0 F3600 X9.357 Y57.824
G1 F1800 X190.608 Y57.824 E178.76425
G1 X191.264 Y57.864 E178.79704
G1 X191.91 Y57.983 E178.82981
G1 X192.537 Y58.18 E178.8626
G1 X193.135 Y58.452 E178.89537
G1 X193.696 Y58.794 E178.92815
G1 X194.211 Y59.202 E178.96093
G1 X194.673 Y59.669 E178.99371
G1 X195.074 Y60.189 E179.02647
G1 X195.41 Y60.753 E179.05922
G1 X195.674 Y61.355 E179.09202
G1 X195.864 Y61.984 E179.1248
G1 X195.975 Y62.631 E179.15755
G1 X196.008 Y63.224 E179.18718
G1 X196.009 Y144.112 E183.2227
G1 X195.969 Y144.768 E183.25549
G1 X195.85 Y145.414 E183.28826
G1 X195.653 Y146.04 E183.321
G1 X195.381 Y146.639 E183.35382
G1 X195.039 Y147.2 E183.3866
G1 X194.632 Y147.715 E183.41935
G1 X194.164 Y148.177 E183.45216
G1 X193.644 Y148.578 E183.48492
G1 X193.08 Y148.914 E183.51767
G1 X192.478 Y149.178 E183.55046
G1 X191.849 Y149.368 E183.58325
G1 X191.202 Y149.479 E183.616
G1 X190.609 Y149.512 E183.64563
G1 X9.357 Y149.512 E192.68833
G1 X8.701 Y149.472 E192.72111
G1 X8.055 Y149.353 E192.75389
G1 X7.428 Y149.156 E192.78667
G1 X6.83 Y148.884 E192.81945
G1 X6.269 Y148.542 E192.85223
G1 X5.754 Y148.134 E192.88501
G1 X5.292 Y147.667 E192.91778
G1 X4.891 Y147.147 E192.95054
G1 X4.555 Y146.583 E192.9833
G1 X4.291 Y145.981 E193.01609
G1 X4.101 Y145.352 E193.04887
G1 X3.99 Y144.705 E193.08162
G1 X3.957 Y144.112 E193.11125
G1 X3.957 Y63.224 E197.14677
G1 X3.997 Y62.568 E197.17956
G1 X4.116 Y61.922 E197.21233
G1 X4.313 Y61.295 E197.24512
G1 X4.585 Y60.697 E197.2779
G1 X4.927 Y60.136 E197.31068
G1 X5.335 Y59.621 E197.34346
G1 X5.802 Y59.159 E197.37623
G1 X6.322 Y58.758 E197.40899
G1 X6.886 Y58.422 E197.44174
G1 X7.488 Y58.158 E197.47454
G1 X8.117 Y57.968 E197.50732
G1 X8.764 Y57.857 E197.54007
G1 X9.357 Y57.824 E197.5697
G0 F3600 X9.357 Y58.224
G1 F1800 X190.608 Y58.224 E206.61235
G1 X191.239 Y58.264 E206.64389
G1 X191.86 Y58.383 E206.67544
G1 X192.46 Y58.58 E206.70695
G1 X193.032 Y58.851 E206.73852
G1 X193.564 Y59.191 E206.77002
G1 X194.049 Y59.597 E206.80158
G1 X194.479 Y60.06 E206.8331
G1 X194.848 Y60.574 E206.86467
G1 X195.148 Y61.13 E206.89619
G1 X195.376 Y61.719 E206.9277
G1 X195.528 Y62.333 E206.95926
G1 X195.608 Y63.224 E207.00389
G1 X195.609 Y144.112 E211.03941
G1 X195.569 Y144.743 E211.07095
G1 X195.45 Y145.364 E211.1025
G1 X195.253 Y145.964 E211.134
G1 X194.982 Y146.536 E211.16558
G1 X194.642 Y147.068 E211.19708
G1 X194.236 Y147.553 E211.22863
G1 X193.773 Y147.983 E211.26016
G1 X193.259 Y148.352 E211.29173
G1 X192.703 Y148.652 E211.32325
G1 X192.114 Y148.88 E211.35476
G1 X191.5 Y149.032 E211.38631
G1 X190.609 Y149.112 E211.43094
G1 X9.357 Y149.112 E220.47364
G1 X8.726 Y149.072 E220.50519
G1 X8.105 Y148.953 E220.53673
G1 X7.505 Y148.756 E220.56824
G1 X6.933 Y148.485 E220.59982
G1 X6.401 Y148.145 E220.63132
G1 X5.916 Y147.739 E220.66287
G1 X5.486 Y147.276 E220.6944
G1 X5.117 Y146.762 E220.72596
G1 X4.817 Y146.206 E220.75748
G1 X4.589 Y145.617 E220.78899
G1 X4.437 Y145.003 E220.82055
G1 X4.357 Y144.112 E220.86518
G1 X4.357 Y63.224 E224.9007
G1 X4.397 Y62.593 E224.93224
G1 X4.516 Y61.972 E224.96379
G1 X4.713 Y61.372 E224.9953
G1 X4.984 Y60.8 E225.02687
G1 X5.324 Y60.268 E225.05837
G1 X5.73 Y59.783 E225.08993
G1 X6.193 Y59.353 E225.12145
G1 X6.707 Y58.984 E225.15302
G1 X7.263 Y58.684 E225.18454
G1 X7.852 Y58.456 E225.21605
G1 X8.466 Y58.304 E225.24761
G1 X9.357 Y58.224 E225.29224
G0 F3600 X9.357 Y58.624
G1 F1800 X190.608 Y58.624 E234.33489
G1 X191.213 Y58.664 E234.36514
G1 X191.807 Y58.783 E234.39536
G1 X192.381 Y58.979 E234.42562
G1 X192.924 Y59.25 E234.4559
G1 X193.427 Y59.589 E234.48616
G1 X193.88 Y59.991 E234.51638
G1 X194.277 Y60.449 E234.54661
G1 X194.61 Y60.956 E234.57688
G1 X194.874 Y61.502 E234.60713
G1 X195.063 Y62.078 E234.63738
G1 X195.175 Y62.674 E234.66763
G1 X195.208 Y63.224 E234.69512
G1 X195.209 Y144.112 E238.73064
G1 X195.169 Y144.717 E238.76089
G1 X195.05 Y145.311 E238.79111
G1 X194.854 Y145.885 E238.82137
G1 X194.584 Y146.428 E238.85163
G1 X194.244 Y146.93 E238.88188
G1 X193.842 Y147.384 E238.91213
G1 X193.384 Y147.781 E238.94237
G1 X192.877 Y148.114 E238.97263
G1 X192.331 Y148.378 E239.00289
G1 X191.755 Y148.567 E239.03313
G1 X191.159 Y148.679 E239.06339
G1 X190.609 Y148.712 E239.09088
G1 X9.357 Y148.712 E248.13358
G1 X8.752 Y148.672 E248.16383
G1 X8.158 Y148.553 E248.19405
